dist/assets/icons/icon/stage-1.svg

<svg width="164" height="165" viewBox="0 0 164 165" fill="none" xmlns="http://www.w3.org/2000/svg">
<path d="M109.449 35.9744L108.599 48.1322L59.9676 44.7315L60.8178 32.5737L28.397 30.3066L26.1299 62.7275L58.5507 64.9946L59.4009 52.8367L87.8623 54.827C84.9412 58.1284 83.1859 62.2982 82.8663 66.6949L80.5993 99.1157C80.3696 102.339 78.8712 105.339 76.4328 107.459C73.9943 109.578 70.8147 110.644 67.5913 110.423L55.4335 109.573L56.2836 97.4154L23.8628 95.1483L21.5957 127.569L54.0165 129.836L54.8667 117.678L67.0245 118.529C72.3971 118.898 77.6968 117.121 81.761 113.588C85.8253 110.055 88.3224 105.054 88.7045 99.6825L90.9716 67.2616C91.1969 64.0393 92.6922 61.0382 95.129 58.9178C97.5659 56.7973 100.745 55.731 103.967 55.9531L108.032 56.2374L107.182 68.3952L139.603 70.6623L141.87 38.2414L109.449 35.9744ZM51.0123 56.3226L34.8019 55.189L35.9354 38.9786L52.1458 40.1122L51.0123 56.3226ZM46.4781 121.164L30.2677 120.031L31.4012 103.82L47.6117 104.954L46.4781 121.164ZM132.064 61.9903L115.854 60.8568L116.987 44.6463L133.198 45.7799L132.064 61.9903Z" fill="#F2DDFD"/>
</svg>

<svg width="164" height="165" viewBox="0 0 164 165" fill="none" xmlns="http://www.w3.org/2000/svg"><path d="m109.449 35.974-.85 12.158-48.631-3.4.85-12.158-32.421-2.267-2.267 32.42 32.42 2.268.85-12.158 28.462 1.99a20.11 20.11 0 0 0-4.996 11.868L80.6 99.115a12.205 12.205 0 0 1-13.008 11.308l-12.157-.85.85-12.158-32.421-2.267-2.267 32.421 32.42 2.267.85-12.158 12.159.851a20.338 20.338 0 0 0 21.68-18.846l2.267-32.421a12.187 12.187 0 0 1 12.995-11.309l4.065.284-.85 12.158 32.421 2.267 2.267-32.42-32.421-2.268ZM51.012 56.323l-16.21-1.134 1.133-16.21 16.21 1.133-1.133 16.21Zm-4.534 64.841-16.21-1.133L31.4 103.82l16.21 1.134-1.133 16.21Zm85.586-59.174-16.21-1.133 1.133-16.21 16.211 1.133-1.134 16.21Z" fill="#F2DDFD"/></svg>
